X:1
T:Title
%%score ( 1 2 ) ( 3 4 )
L:1/8
Q:1/4=85
M:6/4
K:F
V:1 treble nm="Drawbar Organ, Soprano"
V:2 treble 
V:3 bass nm="Church Organ, In His Rude Manger-Bed"
V:4 bass 
V:1
 CD[A,E]FG[FA] [FAc]3 .[FAc]3 | .[DF]6 z6 | G,-[G,-D][G,E]FG[DFA] [Ec]3 .[Ec]3 | %3
w: By~James~Henry~Fillmore,~Sr. * * * * * * *|||
 [Ec][D=B][CA][DB][DE][DB] [CA]6 | BGFED[B,C] [A,CA]3 .[CFA]3 | %5
w: ||
 [DFA][DFA][DFA][DF=B][DFA][DFB] [CEc]6 | CD[A,E]FG[FA] [FAc]3 .[FAc]3 | .[DF]6 z6 | %8
w: |||
 [Ec][EB][EG][CE][CD]C [CA]3 .[CA]3 | [FA][FA][FA][F=B][FA][FB] [Ec]6 | z6 .A6 | %11
w: |||
 [FA][EG]F[EA][EG]C [CF]6- | [CF]6 z6 |] %13
w: ||
V:2
 .A,3 .A,3 z6 | AG[DF][CA][B,G][B,C] [A,CF]6 | .C3 .D3 z6 | x12 | [CE]3 .B,3 z6 | x12 | %6
 .A,3 .A,3 z6 | AG[DF][CFA][B,EG][B,C] [A,CF]6 | x12 | x12 | %10
 C[CD][CE][CF][CG][CA] c2- [Gc] .[Fc]3 | x12 | x12 |] %13
V:3
 [F,,F,]2 E, D,2 C, A,,2 G,, .F,,3 | D,,3 C,,3 F,,C,B,,A,,G,,F,, | %2
 E,,3 [D,,D,]3 [C,,C,]2 B,, .A,,3 | [E,,E,]3 [E,,E,]3 A,,C,=B,, .A,,3 | G,,3 C,3 F,E,D,C,A,,F,, | %5
 D,,3 G,,3 C,,C,D,C,B,,G,, | F,,2 E, D,2 C, A,,2 G,, .F,,3 | D,,3 C,,3 F,,2 C, .F,3 | %8
 [C,B,][C,B,][C,B,][C,B,][C,B,][C,B,] [F,A,]3 .[F,A,]3 | %9
 [D,A,][D,A,][D,A,][G,,G,][G,,G,][G,,G,] [C,G,]6 | z6 .C6 | %11
 [C,C][C,B,][C,A,][C,C][C,B,][C,B,] [F,A,]6- | [F,A,]6 z6 |] %13
V:4
 x12 | x12 | x12 | x12 | x12 | x12 | x12 | x12 | x12 | x12 | %10
 [F,A,][F,A,][F,A,][F,A,][F,A,][F,A,] F,2- [F,B,] .[F,A,]3 | x12 | x12 |] %13

